X:1
T:Title
%%score { ( 1 3 ) | ( 2 4 ) }
L:1/8
M:4/4
K:Bb
V:1 treble nm="Grand Piano"
V:3 treble 
V:2 bass 
V:4 bass 
V:1
 z4 z2[Q:1/4=100] [Fd][Ec] | [DB][DB][DB][DB] [DB]2 [DF]2 | [_DG]2 [=DF]4 [DF][DF] | %3
 [FB][FB][FB][FB] [FB][Fd][Fc][FB] | c6 dc | [DB][DB][DB][DB] [DB]2 [DF]2 |[M:3/4] [EG]2 [Ge]4 | %7
[M:1/4] [Ge][^Fe] |[M:4/4] dddB c2 c2 |[M:3/4] [DB]6 |[M:1/4] [B,D][CE] | %11
[M:4/4] [DF] [_D=E]2 [=DF] [Fd]2 [_Ec]2 | B2- [EB-]2 [DB]2 [B,_AB]2 | %13
 [B,GB] [B,^FA]2 [B,GB] [EGc]2 [B,GB]2 | [DF]2- [B,D-F-]2 [B,DF]2 D[CE] | z4 z2 [Fc]2 | %16
[M:9/8] B2 [_AB]- [AB] [GB]2- [GB] [Ge]2 |[M:4/4] d2 dd c2 c2 |[M:3/4] [DFB]6 |] %19
V:2
 z4 z2 [B,,B,][B,,B,] | [B,,B,][B,,B,][B,,F,][B,,F,] [B,,F,]2 [B,,B,]2 | %2
 [B,,B,]2 [B,,B,]4 [B,,B,][B,,B,] | [D,B,][D,B,][D,B,][D,B,] [D,B,][B,,B,][C,A,][D,B,] | %4
 [F,A,F]6 [F,B,F][F,A,E] | [B,,B,][B,,B,][B,,F,][B,,F,] [B,,F,]2 [B,,B,]2 | %6
[M:3/4] [E,B,]2 [E,B,]4 |[M:1/4] [E,B,][E,B,] | %8
[M:4/4] [F,B,F][F,B,F][F,B,F][F,B,D] [F,A,E]2 [F,A,E]2 |[M:3/4] [B,,B,]6 |[M:1/4] [B,,F,][B,,F,] | %11
[M:4/4] [B,,B,] [B,,B,]2 [B,,B,] [B,,B,]2 [F,A,]2 | z2 G,2 F,2 D,2 | E, E,2 E, E,2 E,2 | %14
 B,,2 B,,2 B,,2 [B,,F,B,][B,,F,] | [B,,B,] [B,,B,]2 [B,,B,] [B,,B,]2 .[D,A,]2 | %16
[M:9/8] [G,DG]2 [F,D]- [F,D] [E,E]2- [E,E] [E,B,]2 | %17
[M:4/4] [F,B,F]2 [F,B,F][F,B,F] [F,A,F]2 [F,EF]2 |[M:3/4] [B,,B,]6 |] %19
V:3
 x8 | x8 | x8 | x8 | x8 | x8 |[M:3/4] x6 |[M:1/4] x2 |[M:4/4] x8 |[M:3/4] x6 |[M:1/4] x2 | %11
[M:4/4] x8 | [B,D]2 z2 z4 | x8 | B,2 z2 z4 | [DF] [_D=E]2 [=DF] [Fd]2 z D |[M:9/8] x9 |[M:4/4] x8 | %18
[M:3/4] x6 |] %19
V:4
 x8 | x8 | x8 | x8 | x8 | x8 |[M:3/4] x6 |[M:1/4] x2 |[M:4/4] x8 |[M:3/4] x6 |[M:1/4] x2 | %11
[M:4/4] x8 | B,,6 z2 | x8 | x8 | x8 |[M:9/8] x9 |[M:4/4] x8 |[M:3/4] x6 |] %19

